src/img/icons/brand-08.svg

<svg width="64" height="64" viewBox="0 0 64 64" fill="none" xmlns="http://www.w3.org/2000/svg">
<path fill-rule="evenodd" clip-rule="evenodd" d="M63 32C63 49.1208 49.1208 63 32 63C14.8792 63 1 49.1208 1 32C1 14.8792 14.8792 0.999999 32 0.999999C49.1208 0.999998 63 14.8792 63 32ZM64 32C64 49.6731 49.6731 64 32 64C14.3269 64 2.17128e-06 49.6731 1.39876e-06 32C6.26248e-07 14.3269 14.3269 -6.26248e-07 32 -1.39876e-06C49.6731 -2.17128e-06 64 14.3269 64 32Z" fill="#1B1B1B"/>
<path fill-rule="evenodd" clip-rule="evenodd" d="M32 63C42.4934 63 51 54.4934 51 44C51 33.5066 42.4934 25 32 25C21.5066 25 13 33.5066 13 44C13 54.4934 21.5066 63 32 63ZM32 64C43.0457 64 52 55.0457 52 44C52 32.9543 43.0457 24 32 24C20.9543 24 12 32.9543 12 44C12 55.0457 20.9543 64 32 64Z" fill="#1B1B1B"/>
<path fill-rule="evenodd" clip-rule="evenodd" d="M20 51C30.4934 51 39 42.4934 39 32C39 21.5066 30.4934 13 20 13C9.50659 13 1 21.5066 1 32C1 42.4934 9.50659 51 20 51ZM20 52C31.0457 52 40 43.0457 40 32C40 20.9543 31.0457 12 20 12C8.9543 12 0 20.9543 0 32C0 43.0457 8.9543 52 20 52Z" fill="#1B1B1B"/>
<path fill-rule="evenodd" clip-rule="evenodd" d="M44 51C54.4934 51 63 42.4934 63 32C63 21.5066 54.4934 13 44 13C33.5066 13 25 21.5066 25 32C25 42.4934 33.5066 51 44 51ZM44 52C55.0457 52 64 43.0457 64 32C64 20.9543 55.0457 12 44 12C32.9543 12 24 20.9543 24 32C24 43.0457 32.9543 52 44 52Z" fill="#1B1B1B"/>
<path fill-rule="evenodd" clip-rule="evenodd" d="M32 39C42.4934 39 51 30.4934 51 20C51 9.50659 42.4934 1 32 1C21.5066 1 13 9.50659 13 20C13 30.4934 21.5066 39 32 39ZM32 40C43.0457 40 52 31.0457 52 20C52 8.9543 43.0457 0 32 0C20.9543 0 12 8.9543 12 20C12 31.0457 20.9543 40 32 40Z" fill="#1B1B1B"/>
</svg>

<svg xmlns="http://www.w3.org/2000/svg" fill="none" viewBox="0 0 64 64"><path fill="#1B1B1B" fill-rule="evenodd" d="M63 32c0 17.12-13.88 31-31 31C14.88 63 1 49.12 1 32 1 14.88 14.88 1 32 1c17.12 0 31 13.88 31 31zm1 0c0 17.673-14.327 32-32 32C14.327 64 0 49.673 0 32 0 14.327 14.327 0 32 0c17.673 0 32 14.327 32 32z" clip-rule="evenodd"/><path fill="#1B1B1B" fill-rule="evenodd" d="M32 63c10.493 0 19-8.507 19-19s-8.507-19-19-19-19 8.507-19 19 8.507 19 19 19zm0 1c11.046 0 20-8.954 20-20s-8.954-20-20-20-20 8.954-20 20 8.954 20 20 20z" clip-rule="evenodd"/><path fill="#1B1B1B" fill-rule="evenodd" d="M20 51c10.493 0 19-8.507 19-19s-8.507-19-19-19S1 21.507 1 32s8.507 19 19 19zm0 1c11.046 0 20-8.954 20-20s-8.954-20-20-20S0 20.954 0 32s8.954 20 20 20z" clip-rule="evenodd"/><path fill="#1B1B1B" fill-rule="evenodd" d="M44 51c10.493 0 19-8.507 19-19s-8.507-19-19-19-19 8.507-19 19 8.507 19 19 19zm0 1c11.046 0 20-8.954 20-20s-8.954-20-20-20-20 8.954-20 20 8.954 20 20 20z" clip-rule="evenodd"/><path fill="#1B1B1B" fill-rule="evenodd" d="M32 39c10.493 0 19-8.507 19-19S42.493 1 32 1 13 9.507 13 20s8.507 19 19 19zm0 1c11.046 0 20-8.954 20-20S43.046 0 32 0 12 8.954 12 20s8.954 20 20 20z" clip-rule="evenodd"/></svg>
